fs/phone_desktop_28_filled.svg

<svg viewBox="0 0 28 28" fill="none" xmlns="http://www.w3.org/2000/svg" height="1em" width="1em">
  <path d="M9.74655 10C10.9374 10 11.9122 10.9252 11.9914 12.096L11.9966 12.25V23.75C11.9966 24.9409 11.0714 25.9156 9.9006 25.9948L9.74655 26H4.25C3.05914 26 2.08436 25.0748 2.00519 23.904L2 23.75V12.25C2 11.0591 2.92516 10.0844 4.09595 10.0052L4.25 10H9.74655ZM7.74999 21.5H6.24884L6.14706 21.5068C5.78099 21.5565 5.49884 21.8703 5.49884 22.25C5.49884 22.6297 5.78099 22.9435 6.14706 22.9932L6.24884 23H7.74999L7.85176 22.9932C8.21783 22.9435 8.49999 22.6297 8.49999 22.25C8.49999 21.8703 8.21783 21.5565 7.85176 21.5068L7.74999 21.5ZM23.7526 2C24.9435 2 25.9183 2.92516 25.9974 4.09595L26.0026 4.25V15.5C26.0026 16.6909 25.0775 17.6656 23.9067 17.7448L23.7526 17.75H18.998V20.5H20.25C20.6642 20.5 21 20.8358 21 21.25C21 21.6297 20.7178 21.9435 20.3518 21.9932L20.25 22H13V20.5H17.498V17.75H13V11.5C13 10.1745 11.9685 9.08996 10.6644 9.00532L10.5 9H5V4.25C5 3.05914 5.92516 2.08436 7.09595 2.00519L7.25 2H23.7526Z" fill="#212121"/>
</svg>

<svg viewBox="0 0 28 28" fill="none" xmlns="http://www.w3.org/2000/svg" height="1em" width="1em">
  <path d="M9.747 10a2.25 2.25 0 0 1 2.244 2.096l.006.154v11.5A2.25 2.25 0 0 1 9.9 25.995L9.747 26H4.25a2.25 2.25 0 0 1-2.245-2.096L2 23.75v-11.5a2.25 2.25 0 0 1 2.096-2.245L4.25 10h5.497ZM7.75 21.5H6.249l-.102.007a.75.75 0 0 0 0 1.486L6.25 23h1.5l.102-.007a.75.75 0 0 0 0-1.486L7.75 21.5ZM23.753 2a2.25 2.25 0 0 1 2.244 2.096l.006.154V15.5a2.25 2.25 0 0 1-2.096 2.245l-.154.005h-4.755v2.75h1.252a.75.75 0 0 1 .102 1.493L20.25 22H13v-1.5h4.498v-2.75H13V11.5a2.5 2.5 0 0 0-2.336-2.495L10.5 9H5V4.25a2.25 2.25 0 0 1 2.096-2.245L7.25 2h16.503Z" fill="#212121"/>
</svg>
